X:1
T:SHIMMY-SHIMMY
T:SHIMMY-SHIMMY
T:à Monsieur MARIUS BLANC bien amicalement.
T:GEORGES AUBRY
T:A.B.2253
T:A.B.2253
C:GEORGES AUBRY
Z:A.B.2253
%%score { ( 1 3 ) | ( 2 4 ) }
L:1/8
Q:1/4=180
M:2/2
K:C
V:1 treble nm="Piano" snm="Pno."
V:3 treble 
V:2 bass 
V:4 bass 
V:1
S"^Allegro con moto"!mf! .[CEAc] z !^![CEA]4 [A,CE]2 | F>G !>!F4 E2 | F>G !>!F4 E2 | F>G !>!F4 E2 | %4
 .[EAce] z !^![EAc]4 [CEA]2 | A>B !>!A4 G2 | A>B !>!A4 G2 | A>B !>!A4 G2 | %8
"_cresc." .!^![ABg] z [ABf]4 [ABd]2 | !>!c4 B4 | .!^![AB=g] z [ABf]4 [ABd]2 | !>!c4 B4 | %12
 .[EAe] z !tenuto![EAc]4 [F_B]2 | .[EAe] z !tenuto![EAc]4 [F_B]2 | %14
!p![Q:1/4=175] A2"_dimin." E4[Q:1/4=170] D2 |"^rall."[Q:1/4=165] E4[Q:1/4=160] E4 || %16
[K:A]!mf!"^Bien chanté"[Q:1/4=180] (c4 c4 | d4 c2 B2 | A4 F2 A2 | G4 E4) | (F4 C2 E2 | E4 E4 | %22
 (F2) F2 A2 F2 | B8) | (c4 c4 |"_cresc" c4 ^d4 | (^e4) ^d2 e2 | f4 ^e2 ^d2 | c4) A4 | c4 A4 | c8 | %31
 c8 ||!ff! c'4 c'4 | d'4 c'2 b2 | a4 f2 a2 | g4 e4 | f4 c2 d2 | e4 e4 | f2 f2 a2 f2 | b8 | %40
 c'4 c'4 | d'4 e'4 |"_cresc." [ff']4 [^e^e']2 [ff']2 | [ff']4 [gg']2 [ff']2 | %44
!ff! [aa']4 [ee']2 [dd']2 | [cc']4 [Bb]4 | [Aa-]8 | a2 z2 !^![ac'e'a']2 z2!D.S.! || %48
V:2
 .[A,,,A,,]2 z2 .[C,,C,]2 z2 | .[B,,,B,,]2 z2 .E,,2 z2 | .B,,2 z2 .E,,2 z2 | .A,,2 z2 .E,,2 z2 | %4
 .[A,,,A,,]2 z2 .[C,,C,]2 z2 | .[D,,D,]2 z2 .G,,2 z2 | .D,2 z2 .G,,2 z2 | .C,2 z2 .G,,2 z2 | %8
 D, [A,B,]2 [A,B,] F, [A,B,D]2 [A,B,D] | !>![E,C]4 [E,B,]4 | %10
 D, [A,B,]2 [A,B,] F, [A,B,D]2 [A,B,D] | !>![E,C]4 [E,B,]4 | %12
 C, [E,A,C]2 [E,A,C] D, [F,_B,]2 [F,B,] | C, [E,A,C]2 [E,A,C] D, [F,_B,]2 [F,B,] | %14
 E, [A,C]2 [A,C] F, [A,B,]2 [A,B,] | E,4 D,4 ||[K:A] A,,2 E,2 E,,2 E,2 | B,,2 G,2 E,,2 G,2 | %18
 C,2 E,2 E,,2 E,2 | %19
"_Copyright by A. BOSC 1921""_Paris,A.BOSC,Editeur,S,rue Rochechouart" B,,2 E,2 E,,2 E,2 | %20
 z [F,A,]2 [F,A,] z [F,A,]z[F,A,] | z [G,D]2 [G,D] z [G,D]2 [G,D] | C,2 E,2 E,,2 E,2 | %23
 G,,2 E,2 E,,2 E,2 | z2 E,2 ^E,4 | F,4 ^^F,4 | z2 G,2 C2 G,2 | z2 G,2 ^B,2 G,2 | %28
 z2 [G,C]2 z2 [A,C]2 | z2 [G,C]2 z2 [G,C]2 | z2 G,2 C2 G,2 | z2 G,2 C2 G,2 || %32
 A,,2 [E,CE]2 E,,2 [F,CF]2 | B,,2 [G,DE]2 E,,2 [G,DE]2 | C,2 [A,CE]2 E,,2 [A,CE]2 | %35
 B,,2 [E,G,D]2 E,,2 [E,G,D]2 | A,,2 [E,A,C]2 E,,2 [E,A,C]2 | B,,2 [E,G,D]2 E,,2 [E,G,D]2 | %38
 C,2 [E,A,C]2 E,,2 [E,A,C]2 | G,,2 [G,DE]2 E,,2 [G,DE]2 | z2 E,2 A,2 E,2 | B,2 E,2 C2 E,2 | %42
 z2 A,2 [DF]2 A,2 | z2 B,2 [A,^D]2 B,2 | z2 C2 x4 | E4 D4 | z2 [CE]2 z2 [CF]2 | %47
 [A,CE]2 E,2 !^![A,,E,A,]2 z2 || %48
V:3
 x8 | [A,D] z [A,D][A,D] z [A,D]z[A,D] | [^G,D] z [G,D][G,D] z [G,D]z[G,D] | %3
 [A,C] z [A,C][A,C] z [A,C]z[A,C] | x8 | [CF] z [CF][CF] z [CF]z[CF] | %6
 [B,F] z [B,F][B,F] z [B,F]z[B,F] | [CE] z [CE][CE] z [CE]z[CE] | x8 | %9
 z [DEG]2 [DE^G] z [DEG]2 [DEG] | x8 | z [DEG]2 [DE^G] z [DEG]2 [DEG] | x8 | x8 | x8 | %15
 z [^G,B,]2 [G,B,] z [G,^B,]2 [G,B,] ||[K:A] z [CE]2!<(! [CE] z [CF]2 [CF] | %17
 z [DE]2 [DE]!<)! z [DE]z[DE] | z [A,CE]2 [A,CE] z [A,CE]z[A,CE] | z [G,D]2 [G,D] z [G,D]2 [G,D] | %20
 x8 | x8 | z [A,C]z[A,C] z [A,C]z[A,C] | z [B,DE]2 [B,DE] z [B,DE]2 [B,DE] | %24
 z [CE]2 [CE] z [C^E]2 [CE] | z [CF]2 [CF] z [C^^F]2 [CF] | z [^EG]2 [EG] z [EG]2 [EG] | %27
 z [FG]2 [FG] z [FG]2 [FG] | z [^EG]2 [EG] z [^DF]2 [DF] | z [^EG]2 [EG] z [^DF]2 [DF] | %30
 z [^EG]2 [EG] z"_dimin." [^DF]2 [DF] | z [^EG]2 [EG] z [^DF]2 [DF] || %32
 z .[c=e].[ce].[ce] z .[cf].[cf].[cf] | z .[de].[de].[de] z .[de]z.[de] | %34
 z .[Ace].[Ace].[Ace] z .[Ace]z.[Ace] | z .[Gd].[Gd].[Gd] z .[Gd].[Gd].[Gd] | %36
 z .[FA].[FA].[FA] z .[FA]z.[FA] | z .[Gd].[Gd].[Gd] z .[Gd].[Gd].[Gd] | %38
 z .[Ac]z.[Ac] z .[Ac]z.[Ac] | z .[Bde].[Bde].[Bde] z .[Bde].[Bde].[Bde] | %40
 z .[c=e].[ce].[ce] z .[cf].[cf].[cf] | z .[d=g].[dg].[dg] z .[eg].[eg].[eg] | %42
 z .[ad'].[ad'].[ad'] z .[ad']z.[ad'] | z .[b^d'].[bd'].[bd'] z .[bd']z.[bd'] | %44
 z [c'e']2 [c'e'] G2 F2 | z [eg]2 [eg] z [eg]2 [eg] | z [ce]2 [ce] z [Acf]2 [Acf] | [Ace]2 z2 x4 || %48
V:4
 x8 | x8 | x8 | x8 | x8 | x8 | x8 | x8 | x8 | x8 | x8 | x8 | x8 | x8 | x8 | E,2 E,,2 D,2 E,,2 || %16
[K:A] x8 | x8 | x8 | x8 | A,,2 E,2 E,,2 E,2 | B,,2 E,2 E,,2 E,2 | x8 | x8 | A,,6 A,,2- | %25
 A,,2 A,,4 A,,2 | G,,8 | G,,8 | C,4 F,4 | C,4 F,4 | C,8 | B,,8 || x8 | x8 | x8 | x8 | x8 | x8 | %38
 x8 | x8 | A,,8 | A,,8 | D,8 | B,,8 | E,,2 [E,A,]6 | z2 E,2 z2 E,2 | A,4 F,4 | x8 || %48

